X:464
T:Ah Ya Zayn
Z:Jack Campin, http://www.campin.me.uk/
F:Jack Campin's Nine-Note Tunebook
% last edit 03-02-2013
N:Egyptian dance song
M:2/4
L:1/16
Q:1/4=100
K:EPhr
^GA|B6 ^GA|B6     ^GA|BcBA BcBA|^G6
 B2|A6 ^GA|BcBA ^GFE2|BAA^G GFFE|EF^GA B2
 cB|A6 ^GA|BcBA ^GFE2|BAA^G GFFE|E2z4 |]

